X:55
T: Thrupenny Bit
C: Peter Fitzgerald
Z: B.Black
R: jig
M: 6/8
L: 1/8
K: Dm
AFD EFD | GAF G2 G | Ade cde | gec BAG |
AFD EFD | GAF G2 G | Adc AcB | BGE D3 :|
AFF dFF | cFF AFF | DFA Bgf | ecd _BAG |
AFF dFF | cFF AFF | DFA dBc |1 efe dc_B :|\
|2 GEF D3 ||
